X:90
T:Nonesuch
M:2/2
L:1/4
K:F
a | "Dm" afga | f e/2f/2 da | afga | f2-f a |
afga | f e/2f/2 da | afga | f2 d ||
|: "Am" ecde |"Dm" f e/2f/2 de | "Am" ecde | "Dm" f2 de :|
%
%
